X:1
T:TantulD Ergo
T:Tantum Ergo
T: Music: J. S. Bach 
C:SanK Tac: J. S. Bach
%%score { ( 1 2 ) | ( 3 4 ) }
L:1/8
Q:1/4=60
M:4/4
K:F
V:1 treble nm="Organ"
V:2 treble 
V:3 bass 
V:4 bass 
V:1
"^MODERATO"!p! A2 A2 G2 F2 | E2 E2 (DE) F2 |!<(! A2 =B2 c2!<)! A2 |!>(! d3 d!>)! ^c4 | %4
!f!!>(! (de) f2!>)! e3 [Ge] |!p! !fermata!d8 | A2 A2 G2 F2 | E2 E2 (DE) F2 |!mf! A2 =B2 c2 A2 | %9
 d3 d ^c4 |!f!!<(! ([Fd][Ge])!<)! f2!>(! e3 [Ge]!>)! | !fermata!d8 |!p! A2 A2 B2 A2 | %13
 G2 G2 (F>G) A2 |!f!!<(! A2!<(! =B2 c2!<)!"^poco a poco" A2!<)! | (d2!p!!>(! c2 =B3)!>)! B | %16
 !fermata!A4!p! A2 A2 |!>(!!>(! G2 F2!>)! E3 E!>)! | !fermata!D8!D.C.! || %19
[Q:1/4=40]"^Allegr." (A2!<(! B2) A2!<)!!>(! G2 | !fermata!^F8!>)! |] %21
V:2
 D2 E2 D^C D2 | D2 ^C2 D2 D2 | FE D2 C2 C2 | FG A2 A4 | FG A2 A3 x | F8 | D2 E2 D^C D2 | %7
 D2 ^C2 D2 D2 | FE D2 C2 C2 | FG A2 A4 | x2 A2 G3 x | F8 | F2 F2 G2 F2 | F2 E2 D2 F2 | %14
 F2 F2 G2 FG | F2 E2 F2 ED | ^C4 D2 E2 | D^C D2 D2 C2 | A,8 || FEDG E4 | D8 |] %21
V:3
 F,2 A,2 (A,E,) F,2 | B,2 (A,G,) (F,G,) A,2 | (DC) (=B,A,) G,2 (F,G,) | A,2 F2 E4 | D2 D2 D2 ^C2 | %5
 !fermata!A,8 | F,2 A,2 (B,E,) F,2 | B,2 (A,G,) (F,G,) A,2 | (DC) (=B,A,) G,2 (F,G,) | A,2 F2 E4 | %10
 D2 D2 D2 ^C2 | !fermata!A,8 | D2 C2 C2 C2 | D2 (CB,) A,>B, C2 | C2 D2 C3 G, | A,6 ^G,2 | %16
 !fermata!A,4 F,2 A,2 | (B,E,) F,2 B,2 (A,G,) | !fermata!^F,8 || (F,2 D,2 ^C,4) | !fermata!D,8 |] %21
V:4
 D,2 C,2 B,,3 A,, | G,,2 A,,2 D,2 D,2 | D,2 G,F, E,2 F,E, | D,E,F,G, A,4 | B,2 A,G, A,2 A,2 | D,8 | %6
 D,2 C,2 B,,3 A,, | G,,2 A,,2 D,2 D,2 | D,2 G,F, E,2 F,E, | D,E,F,G, A,4 | B,2 A,G, A,2 A,2 | D,8 | %12
 D,E, F,2 E,2 F,2 | B,,2 C,2 F,2 F,2 | F,2 E,D, E,2 F,E, | D,2 A,,2 D,2 E,2 | A,,4 D,2 C,2 | %17
 B,,3 A,, G,,2 A,,2 | D,8 || D,C,B,,G,, A,,4 | D,8 |] %21

